blockchains/ethereum/assets/0x69af81e73A73B40adF4f3d4223Cd9b1ECE623074/logo.svg

<svg fill="none" height="250" viewBox="0 0 250 250" width="250" xmlns="http://www.w3.org/2000/svg" xmlns:xlink="http://www.w3.org/1999/xlink"><clipPath id="a"><path d="m0 0h250v250h-250z"/></clipPath><g clip-path="url(#a)"><path d="m125.275 250c69.23 0 125.274-56.044 125.274-125.275-.549-68.681-56.593-124.725-125.274-124.725-68.6816 0-125.275 56.0439-125.275 125.275 0 68.681 56.0439 124.725 125.275 124.725z" fill="#1c68f3"/><path clip-rule="evenodd" d="m200.549 94.5054v41.7586h-126.3733-5.4945c5.4945 25.274 28.5715 43.956 56.0438 43.956 22.528 0 42.308-12.638 51.649-31.319h24.725v34.615c0 8.242-6.594 14.836-15.385 14.836h-121.9778c-8.2418 0-15.3846-6.594-15.3846-14.836v-89.0106zm-39.011 53.8466c-8.241 11.538-21.428 19.23-36.813 19.23-15.384 0-29.1207-7.692-36.813-19.23zm-69.2304-43.956c-12.0879 0-21.978 8.791-23.6264 19.78h13.1868c1.6484-4.396 5.4945-7.693 10.4396-7.693s8.7914 3.297 10.4394 7.693h12.638c-1.649-11.539-11.539-19.78-23.0774-19.78zm64.8354 0c-12.088 0-21.978 8.791-23.627 19.78h13.187c1.649-4.396 5.495-7.693 10.44-7.693s8.791 3.297 10.439 7.693h13.187c-2.198-11.539-12.088-19.78-23.626-19.78zm28.022-56.0444c8.241 0 15.384 6.5934 15.384 14.8351v18.1319h-152.1974v-18.1319c0-8.2417 6.5934-14.8351 15.3846-14.8351z" fill="#fff" fill-rule="evenodd"/></g></svg>

<svg width="250" height="250" viewBox="0 0 250 250" fill="none" xmlns="http://www.w3.org/2000/svg">
<g clip-path="url(#clip0_49_10710)">
<path d="M125.275 250C194.505 250 250.549 193.956 250.549 124.725C250 56.044 193.956 0 125.275 0C56.5934 0 0 56.0439 0 125.275C0 193.956 56.0439 250 125.275 250Z" fill="#1C68F3"/>
<path fill-rule="evenodd" clip-rule="evenodd" d="M200.549 94.5054V136.264H74.1757H68.6812C74.1757 161.538 97.2527 180.22 124.725 180.22C147.253 180.22 167.033 167.582 176.374 148.901H201.099V183.516C201.099 191.758 194.505 198.352 185.714 198.352H63.7362C55.4944 198.352 48.3516 191.758 48.3516 183.516V94.5054H200.549ZM161.538 148.352C153.297 159.89 140.11 167.582 124.725 167.582C109.341 167.582 95.6043 159.89 87.912 148.352H161.538ZM92.3076 104.396C80.2197 104.396 70.3296 113.187 68.6812 124.176H81.868C83.5164 119.78 87.3625 116.483 92.3076 116.483C97.2527 116.483 101.099 119.78 102.747 124.176H115.385C113.736 112.637 103.846 104.396 92.3076 104.396ZM157.143 104.396C145.055 104.396 135.165 113.187 133.516 124.176H146.703C148.352 119.78 152.198 116.483 157.143 116.483C162.088 116.483 165.934 119.78 167.582 124.176H180.769C178.571 112.637 168.681 104.396 157.143 104.396ZM185.165 48.3516C193.406 48.3516 200.549 54.945 200.549 63.1867V81.3186H48.3516V63.1867C48.3516 54.945 54.945 48.3516 63.7362 48.3516H185.165Z" fill="white"/>
</g>
<defs>
<clipPath id="clip0_49_10710">
<rect width="250" height="250" fill="white"/>
</clipPath>
</defs>
</svg>
